!!!OTL: Maria zart.
!!!ARE: Europa, Mitteleuropa, Deutschland
!!!SCT: A0596
!!!TXL: @@DE
!!!YEM: Copyright 1995, estate of Helmut Schaffrath.
**kern	**text
*M4/1	*
*met(c|)	*
*met(2)	*
*clefC4	*
*k[]	*
*e:phr	*
=1	=1
!LO:TX:a:t=phr	!
{0E	Ma-
1G	-ri-
1F	-a
=2	=2
1E	ʒart,
1F	von
1D	ed-
1D	-ler
=3	=3
0C	art,
1r}	.
{1G	ein
=4	=4
1G	ros
1G	an
1A	al-
1G	-le
=5	=5
0F	dor-
0E}	-nen,}
=6	=6
{0E	Du
1G	haſt
1F	mit
=7	=7
1E	macht
1F	her-
1D	-wi-
1D	-der
=8	=8
0C	bracht,
1r}	.
{1G	das
=9	=9
1G	vorlang
1G	.
1A	war
1G	ver-
=10	=10
0F	-lo-
0E}	-ren:}
=11	=11
{1r	.
1E	Durch
1A	A-
1G	-dams
=12	=12
1A	fall;
1c	dir
*lig	*
2B	hat
2A	.
*Xlig	*
1B	ge-
=13	=13
0A	-walt
1r}	.
{1G	Sanct
=14	=14
1c	Ga-
1A	-bri-
1B	-el
1c	ver-
=15	=15
0A	-ſpro-
0G}	-chen;
=16	=16
{1r	.
1G	hilf
1E	daß
1F	nicht
=17	=17
1G	werd
1F	ge-
0E	-ro-
=18	=18
0D	-chen
1r}	.
{1G	mein
=19	=19
1G	ſünd
1A	vnd
0B	ſchuld,
=20	=20
1r	.
1d	er-
1c	-wirb
1B	mir
=21	=21
0A	huld,
1r}	.
{1B	dann
=22	=22
1c	kein
1A	troſt
0G	iſt
=23	=23
1r	.
1A	durch
1G	mein
1F	ver-
=24	=24
0E	-dienſt,
1r}	.
{1E	barm-
=25	=25
1D	-her-
1C	-ʒig-
1F	-keit
1E	er-
=26	=26
0D	-wer-
0C}	-ben.
=27	=27
{1r	.
1c	Am
1A	letʒ-
1B	-ten
=28	=28
0c	end,
1r	.
1B	bitt,
=29	=29
*lig	*
2A/	dich
2G	.
*Xlig	*
1A	nit
0G}	wend
=30	=30
{1r	.
1A	von
1E	mir
1D	in
=31	=31
1G	mei-
1A	-nem
0F	ſter-
=32	=32
00E/ll}	-ben.
==	==
!!!GTL: Geistliche Volkslieder
!!!AGN: Romanze, Ballade, Lied, religioeses Lied
!! Leisentrit 1567 II fol. 15.
!!!ONB: ESAC (Essen Associative Code) Database: ALTDEU
!!!AMT: simple quadruple
!!!AIN: vox
!!!EED: Helmut Schaffrath
!!!EEV: 1.0
!!!RDF**kern: l = terminal long
!!!AMD: Phrygian
!!!URL-scan: https://rosdok.uni-rostock.de/mcrviewer/recordIdentifier/rosdok_ppn738218359/iview2/phys_0777.iview2?x=-1038.517049950175&y=510.47350331768394&scale=0.35264164471254245&rotation=0&layout=singlePageLayout&logicalDiv=log_0021
!!!ENC: Anna Maria Matuszewska
!!!EEV: 2024/22/03
*-	*-
